frontend/public/svg/e-commerce/truck.svg

<svg width="196" height="124" viewBox="0 0 196 124" fill="none" xmlns="http://www.w3.org/2000/svg">
<path d="M146.406 69.306C142.946 68.7757 142.035 67.3796 141.725 63.9337C141.312 59.3603 140.597 54.8107 140.013 50.2557C139.835 49.2628 139.715 48.2603 139.653 47.2535C139.636 45.4814 140.941 43.3384 142.507 43.1225C146.058 42.6335 149.763 42.0521 152.52 45.278C155.288 48.5151 157.994 51.8058 160.677 55.1144C162.044 56.7511 163.323 58.4602 164.507 60.2341C167.277 64.5219 164.942 69.3381 159.84 69.8409C155.355 69.9374 150.869 69.7589 146.406 69.306ZM146.544 48.2973L145.792 48.7276C146.891 53.4493 147.989 58.1712 149.14 63.1062L157.202 62.7312C153.482 57.3847 150.519 52.4663 146.544 48.2973Z" fill="black"/>
<path d="M194.857 87.5828C193.877 79.9922 197.351 73.0547 191.849 67.5861C185.582 62.0798 178.648 54.6523 172.796 48.3108C166.216 41.2085 159.651 34.0832 152.273 27.6531C146.865 22.894 138.53 27.3339 131.899 27.1278C124.712 0.978675 121.725 0.290909 95.3643 0.488466C70.7005 0.699151 49.2723 3.29031 25.4945 5.34531C3.91079 7.81185 0.766955 5.93621 1.48565 29.9221C1.569 53.123 1.55849 73.0678 2.11835 95.5973C2.04877 113.156 22.793 108.969 34.8283 110.55C36.7001 127.241 61.1034 127.226 66.0043 112.667C92.9018 110.587 119.299 111.826 146.153 107.38C149.172 123.304 173.995 123.329 176.199 106.975C195.303 105.727 195.464 108.077 194.857 87.5828ZM8.97767 79.0176C8.79456 59.5779 7.30274 39.1398 8.01949 19.4995C8.37719 14.9806 8.76837 14.5493 13.3142 13.7892C22.26 12.2337 29.1437 11.8905 37.6814 11.0373C63.3809 9.00264 86.6442 5.38686 113.488 7.921C127.701 9.49621 129.05 67.2002 129.56 77.2461C88.3481 77.1522 50.1065 81.0811 9.49822 82.7219C9.09673 81.53 8.92024 80.2738 8.97767 79.0176ZM56.6935 113.71C47.0053 123.879 33.3587 109.134 43.7912 102.399C45.7176 101.947 47.9359 101.788 50.0638 101.489C55.8382 102.342 62.044 108.27 56.6935 113.71ZM128.234 101.361C118.762 102.564 78.3475 104.38 66.4775 105.234C61.6252 89.8281 40.6644 91.8332 36.1889 103.979C29.1693 103.429 22.1058 103.647 15.1604 102.509C7.38675 101.787 9.04731 93.4445 9.40699 87.8204C50.2811 87.0439 88.7288 83.7104 130.001 84.0792C129.412 88.4373 134.334 100.072 128.236 101.361H128.234ZM166.827 108.564C161.064 116.33 147.546 107.669 155.457 99.3095C157.075 97.6845 161.506 98.3047 163.28 99.1783C165.996 101.284 168.6 105.568 166.827 108.564ZM175.136 100.721C172.069 92.3077 159.408 88.2929 152.631 93.7806C151.617 94.5774 148.908 96.5372 147.643 99.8189C146.934 101.25 137.791 102.583 137.918 99.0641C137.082 76.2892 136.03 54.6687 133.541 32.5042C138.358 32.6945 146.154 30.6183 149.556 34.7158C154.303 39.5786 159.389 44.9272 165.546 51.5569C172.166 59.5065 180.818 66.5215 186.299 75.2508C186.831 81.6272 187.176 92.0084 187.64 98.7753L175.136 100.721Z" fill="black"/>
</svg>

<svg xmlns="http://www.w3.org/2000/svg" width="196" height="124" fill="none" viewBox="0 0 196 124"><path fill="#000" d="M146.406 69.306c-3.46-.53-4.371-1.926-4.681-5.372-.413-4.574-1.128-9.123-1.712-13.678a26 26 0 0 1-.36-3.002c-.017-1.773 1.288-3.916 2.854-4.131 3.551-.49 7.256-1.07 10.013 2.155a490 490 0 0 1 8.157 9.836 60 60 0 0 1 3.83 5.12c2.77 4.288.435 9.104-4.667 9.607-4.485.096-8.971-.082-13.434-.535m.138-21.009-.752.43c1.099 4.722 2.197 9.444 3.348 14.38l8.062-.376c-3.72-5.346-6.683-10.265-10.658-14.434"/><path fill="#000" d="M194.857 87.583c-.98-7.59 2.494-14.528-3.008-19.997-6.267-5.506-13.201-12.934-19.053-19.275-6.58-7.102-13.145-14.228-20.523-20.658-5.408-4.759-13.743-.32-20.374-.525C124.712.978 121.725.29 95.364.488 70.701.7 49.272 3.29 25.494 5.345 3.912 7.812.768 5.936 1.487 29.922c.083 23.201.072 43.146.632 65.675-.07 17.559 20.675 13.372 32.71 14.953 1.872 16.691 26.275 16.676 31.176 2.117 26.898-2.08 53.295-.841 80.149-5.287 3.019 15.924 27.842 15.949 30.046-.405 19.104-1.248 19.265 1.102 18.658-19.392M8.977 79.018C8.796 59.578 7.304 39.14 8.02 19.5c.358-4.52.75-4.95 5.295-5.71 8.946-1.556 15.83-1.9 24.367-2.753 25.7-2.034 48.963-5.65 75.807-3.116 14.213 1.575 15.562 59.28 16.072 69.325-41.212-.094-79.453 3.835-120.062 5.476a10.2 10.2 0 0 1-.52-3.704m47.717 34.692c-9.689 10.169-23.335-4.576-12.903-11.311 1.927-.452 4.145-.611 6.273-.91 5.774.853 11.98 6.781 6.63 12.221m71.54-12.349c-9.472 1.203-49.887 3.019-61.756 3.873-4.853-15.406-25.814-13.4-30.29-1.255-7.019-.55-14.082-.332-21.028-1.47-7.773-.722-6.113-9.064-5.753-14.689 40.874-.776 79.322-4.11 120.594-3.74-.589 4.357 4.333 15.992-1.765 17.281zm38.593 7.203c-5.763 7.766-19.281-.895-11.37-9.254 1.618-1.626 6.049-1.005 7.823-.132 2.716 2.106 5.32 6.39 3.547 9.386m8.309-7.843c-3.067-8.413-15.728-12.428-22.505-6.94-1.014.796-3.723 2.756-4.988 6.038-.709 1.431-9.852 2.764-9.725-.755-.836-22.775-1.888-44.395-4.377-66.56 4.817.19 12.613-1.886 16.015 2.212 4.747 4.863 9.833 10.211 15.99 16.84 6.62 7.95 15.272 14.966 20.753 23.695.532 6.376.877 16.757 1.341 23.524z"/></svg>
